X:1
T:Title
%%score { ( 1 3 ) | 2 }
L:1/8
M:4/4
K:Eb
V:1 treble nm="Grand Piano"
V:3 treble 
V:2 bass 
V:1
 z4 z2[Q:1/4=100] E2 | G2 G>A G2 E2 | [GB]2 [GB]>[Ac] [GB]2 cd | [Ge] [Ge]2 [Ac] [GB] [GB]2 [EG] | %4
 [EG]2 [EF]>[EG] [DF]4 | G2 G>A G2 E2 |[M:7/8] [GB]2 [GB]>[Ac] [GB]3 |[M:1/8] [Gc] | %8
[M:4/4] [Fd] [Fd]2 [Fc] [Ff] [Ff]2 B | dd c2 B2- [AB]2 | [Ge][Ge] [Ge]2 [Ge]3 [EG] | %11
 [GB]B B2 [GB]3 [Ge] | [Ad] [Ad]2 [Ad] [FAd] [DFA]2 [DAd] | [Ac][GB] [GB]2 [EG]4 | %14
 [Ge]2 [Ge]>[Ge] [Ge] [GB]3 | c2 c>c [=Af]3 e | d d2 B e e2 A |[M:3/4] GG [DF]2 E2 |] %18
V:2
 z4 z2 [E,G,]2 | [E,B,E]2 [E,B,E]>[E,CE] [E,B,E]2 [E,G,]2 | %2
 [E,E]2 [E,E]>[E,E] [E,E]2[K:treble] [B,DA][B,A] | [E,B,] [E,B,]2 [E,E] [E,E] [E,E]2 [E,B,] | %4
 [C,C]2 [F,=A,]>[F,A,] [B,,B,]4 | [E,B,E]2 [E,B,E]>[E,CE] [E,B,E]2 [E,G,]2 | %6
[M:7/8] [E,E]2 [E,E]>[E,E] [E,E]3 |[M:1/8] [E,B,] | %8
[M:4/4] [F,B,] [F,B,]2 [E,=A,] [D,B,] [D,B,]2 [G,B,D] | [F,B,F][F,B,F] [F,=A,E]2 B,,2 B,2 | %10
 [E,B,][E,B,] [E,B,]2 [E,B,]3 [E,B,] | [E,E][K:treble][G,E] [B,DA]2[K:bass] [E,E]3 [E,B,] | %12
 B, B,2 B, B,, B,,2 B,, | [E,E][E,E] [E,E]2 [E,B,]4 | [E,B,]2 [E,B,]>[E,B,] [E,B,] [E,E]3 | %15
 [A,EA]2 [A,EA]>[A,EA] [F,E]3 [=A,CF] | [B,F] [B,F]2 [A,B,F][K:bass] [G,B,E] [G,B,E]2 [A,CE] | %17
[M:3/4] [B,E][B,E] [B,,A,]2 [E,G,]2 |] %18
V:3
 x8 | x8 | x8 | x8 | x8 | x8 |[M:7/8] x7 |[M:1/8] x |[M:4/4] x8 | z4 [B,D]2 z2 | x8 | x8 | x8 | %13
 x8 | x8 | x8 | x8 |[M:3/4] x6 |] %18

